assets/components_previews/typography/dark/kbd.svg

<svg xmlns="http://www.w3.org/2000/svg" width="320" height="232" fill="none" viewBox="0 0 320 232"><g filter="url(#a)"><mask id="b" fill="#fff"><path d="M113 115.2c0-6.721 0-10.081 1.308-12.648a12 12 0 0 1 5.244-5.244C122.119 96 125.479 96 132.2 96h55.6c6.721 0 10.081 0 12.648 1.308a12 12 0 0 1 5.244 5.244C207 105.119 207 108.479 207 115.2v1.6c0 6.721 0 10.081-1.308 12.648a12 12 0 0 1-5.244 5.244C197.881 136 194.521 136 187.8 136h-55.6c-6.721 0-10.081 0-12.648-1.308a12 12 0 0 1-5.244-5.244C113 126.881 113 123.521 113 116.8z"/></mask><path fill="#0E0F10" d="M113 115.2c0-6.721 0-10.081 1.308-12.648a12 12 0 0 1 5.244-5.244C122.119 96 125.479 96 132.2 96h55.6c6.721 0 10.081 0 12.648 1.308a12 12 0 0 1 5.244 5.244C207 105.119 207 108.479 207 115.2v1.6c0 6.721 0 10.081-1.308 12.648a12 12 0 0 1-5.244 5.244C197.881 136 194.521 136 187.8 136h-55.6c-6.721 0-10.081 0-12.648-1.308a12 12 0 0 1-5.244-5.244C113 126.881 113 123.521 113 116.8z"/><path fill="#5F43D0" d="M113 96h94zm94 28c0 8.284-6.716 15-15 15h-64c-8.284 0-15-6.716-15-15 0 4.971 5.373 9 12 9h70c6.627 0 12-4.029 12-9m-94 12V96zm94-40v40z" mask="url(#b)"/><path fill="#5F43D0" d="M130.678 121.126c-2.618 0-4.242-1.218-4.508-3.346h2.072c.126 1.078 1.106 1.75 2.534 1.75 1.162 0 1.806-.434 1.806-1.134 0-.644-.336-1.022-1.246-1.274l-1.876-.518c-1.932-.532-2.772-1.456-2.772-2.884 0-1.82 1.498-2.954 3.794-2.954 2.352 0 3.822 1.204 4.004 3.038h-2.072c-.182-.98-.938-1.442-2.058-1.442-.98 0-1.596.406-1.596 1.036 0 .49.224.896 1.232 1.176l1.876.518c1.974.546 2.786 1.47 2.786 2.898 0 2.016-1.47 3.136-3.976 3.136m4.954-.126v-10.08h2.1v4.172c.504-.84 1.344-1.372 2.52-1.372 1.582 0 2.45.952 2.45 2.45V121h-2.1v-4.424c0-.784-.406-1.176-1.176-1.176-.994 0-1.694.714-1.694 1.764V121zm8.341-8.092v-2.268h2.24v2.268zm.07 8.092v-7.14h2.1V121zm4.048 0v-5.544h-1.19v-1.596h1.19v-.476c0-1.722.938-2.604 2.772-2.604.392 0 .658.042.938.126v1.61c-.14-.056-.322-.084-.574-.084-.714 0-1.036.35-1.036.98v.448h1.456v1.596h-1.456V121zm7.999.154c-1.834 0-2.702-.868-2.702-2.688v-3.01h-1.33v-1.596h1.33v-1.596l2.1-.784v2.38h1.848v1.596h-1.848v3.08c0 .644.35.952 1.092.952.28 0 .518-.056.756-.14v1.596c-.252.14-.7.21-1.246.21m7.061-2.016v-2.576h-2.38v-1.512h2.38v-2.59h1.568v2.59h2.366v1.512h-2.366v2.576zM173.724 121v-8.428h-3.29v-1.652h8.736v1.652h-3.29V121zm6.67.14c-1.414 0-2.324-.77-2.324-1.974 0-1.33 1.05-2.142 2.842-2.394l1.764-.252v-.364c0-.574-.392-.924-1.134-.924-.714 0-1.134.252-1.26.714h-2.002c.182-1.288 1.344-2.226 3.332-2.226 2.044 0 3.164.938 3.164 2.66v3.15c0 .476.056.924.21 1.47h-2.1c-.098-.336-.14-.7-.154-1.162-.448.854-1.26 1.302-2.338 1.302m-.224-2.254c0 .462.364.714.924.714.882 0 1.582-.56 1.582-1.19v-.658l-1.414.21c-.756.112-1.092.406-1.092.924m10.399 2.254c-1.162 0-1.988-.49-2.296-1.33V121h-2.058v-10.08h2.1v4.088c.35-.798 1.204-1.288 2.366-1.288 1.918 0 3.15 1.442 3.15 3.682 0 2.268-1.288 3.738-3.262 3.738m-.588-1.68c.98 0 1.666-.742 1.666-2.044s-.686-2.016-1.694-2.016c-.98 0-1.666.728-1.666 2.03s.686 2.03 1.694 2.03"/></g><defs><filter id="a" width="134" height="80" x="93" y="88" color-interpolation-filters="sRGB" filterUnits="userSpaceOnUse"><feFlood flood-opacity="0" result="BackgroundImageFix"/><feColorMatrix in="SourceAlpha" result="hardAlpha" values="0 0 0 0 0 0 0 0 0 0 0 0 0 0 0 0 0 0 127 0"/><feOffset dy="12"/><feGaussianBlur stdDeviation="10"/><feComposite in2="hardAlpha" operator="out"/><feColorMatrix values="0 0 0 0 0 0 0 0 0 0 0 0 0 0 0 0 0 0 0.03 0"/><feBlend in2="BackgroundImageFix" result="effect1_dropShadow_10186_37111"/><feColorMatrix in="SourceAlpha" result="hardAlpha" values="0 0 0 0 0 0 0 0 0 0 0 0 0 0 0 0 0 0 127 0"/><feOffset dy="2"/><feGaussianBlur stdDeviation="3"/><feComposite in2="hardAlpha" operator="out"/><feColorMatrix values="0 0 0 0 0 0 0 0 0 0 0 0 0 0 0 0 0 0 0.05 0"/><feBlend in2="effect1_dropShadow_10186_37111" result="effect2_dropShadow_10186_37111"/><feBlend in="SourceGraphic" in2="effect2_dropShadow_10186_37111" result="shape"/></filter></defs></svg>

<svg width="320" height="232" viewBox="0 0 320 232" fill="none" xmlns="http://www.w3.org/2000/svg">
<g filter="url(#filter0_dd_10186_37111)">
<mask id="path-1-inside-1_10186_37111" fill="white">
<path d="M113 115.2C113 108.479 113 105.119 114.308 102.552C115.458 100.294 117.294 98.4584 119.552 97.3079C122.119 96 125.479 96 132.2 96H187.8C194.521 96 197.881 96 200.448 97.3079C202.706 98.4584 204.542 100.294 205.692 102.552C207 105.119 207 108.479 207 115.2V116.8C207 123.521 207 126.881 205.692 129.448C204.542 131.706 202.706 133.542 200.448 134.692C197.881 136 194.521 136 187.8 136H132.2C125.479 136 122.119 136 119.552 134.692C117.294 133.542 115.458 131.706 114.308 129.448C113 126.881 113 123.521 113 116.8V115.2Z"/>
</mask>
<path d="M113 115.2C113 108.479 113 105.119 114.308 102.552C115.458 100.294 117.294 98.4584 119.552 97.3079C122.119 96 125.479 96 132.2 96H187.8C194.521 96 197.881 96 200.448 97.3079C202.706 98.4584 204.542 100.294 205.692 102.552C207 105.119 207 108.479 207 115.2V116.8C207 123.521 207 126.881 205.692 129.448C204.542 131.706 202.706 133.542 200.448 134.692C197.881 136 194.521 136 187.8 136H132.2C125.479 136 122.119 136 119.552 134.692C117.294 133.542 115.458 131.706 114.308 129.448C113 126.881 113 123.521 113 116.8V115.2Z" fill="#0E0F10"/>
<path d="M113 96H207H113ZM207 124C207 132.284 200.284 139 192 139H128C119.716 139 113 132.284 113 124C113 128.971 118.373 133 125 133H195C201.627 133 207 128.971 207 124ZM113 136V96V136ZM207 96V136V96Z" fill="#5F43D0" mask="url(#path-1-inside-1_10186_37111)"/>
<path d="M130.678 121.126C128.06 121.126 126.436 119.908 126.17 117.78H128.242C128.368 118.858 129.348 119.53 130.776 119.53C131.938 119.53 132.582 119.096 132.582 118.396C132.582 117.752 132.246 117.374 131.336 117.122L129.46 116.604C127.528 116.072 126.688 115.148 126.688 113.72C126.688 111.9 128.186 110.766 130.482 110.766C132.834 110.766 134.304 111.97 134.486 113.804H132.414C132.232 112.824 131.476 112.362 130.356 112.362C129.376 112.362 128.76 112.768 128.76 113.398C128.76 113.888 128.984 114.294 129.992 114.574L131.868 115.092C133.842 115.638 134.654 116.562 134.654 117.99C134.654 120.006 133.184 121.126 130.678 121.126ZM135.632 121V110.92H137.732V115.092C138.236 114.252 139.076 113.72 140.252 113.72C141.834 113.72 142.702 114.672 142.702 116.17V121H140.602V116.576C140.602 115.792 140.196 115.4 139.426 115.4C138.432 115.4 137.732 116.114 137.732 117.164V121H135.632ZM143.973 112.908V110.64H146.213V112.908H143.973ZM144.043 121V113.86H146.143V121H144.043ZM148.091 121V115.456H146.901V113.86H148.091V113.384C148.091 111.662 149.029 110.78 150.863 110.78C151.255 110.78 151.521 110.822 151.801 110.906V112.516C151.661 112.46 151.479 112.432 151.227 112.432C150.513 112.432 150.191 112.782 150.191 113.412V113.86H151.647V115.456H150.191V121H148.091ZM156.09 121.154C154.256 121.154 153.388 120.286 153.388 118.466V115.456H152.058V113.86H153.388V112.264L155.488 111.48V113.86H157.336V115.456H155.488V118.536C155.488 119.18 155.838 119.488 156.58 119.488C156.86 119.488 157.098 119.432 157.336 119.348V120.944C157.084 121.084 156.636 121.154 156.09 121.154ZM163.151 119.138V116.562H160.771V115.05H163.151V112.46H164.719V115.05H167.085V116.562H164.719V119.138H163.151ZM173.724 121V112.572H170.434V110.92H179.17V112.572H175.88V121H173.724ZM180.394 121.14C178.98 121.14 178.07 120.37 178.07 119.166C178.07 117.836 179.12 117.024 180.912 116.772L182.676 116.52V116.156C182.676 115.582 182.284 115.232 181.542 115.232C180.828 115.232 180.408 115.484 180.282 115.946H178.28C178.462 114.658 179.624 113.72 181.612 113.72C183.656 113.72 184.776 114.658 184.776 116.38V119.53C184.776 120.006 184.832 120.454 184.986 121H182.886C182.788 120.664 182.746 120.3 182.732 119.838C182.284 120.692 181.472 121.14 180.394 121.14ZM180.17 118.886C180.17 119.348 180.534 119.6 181.094 119.6C181.976 119.6 182.676 119.04 182.676 118.41V117.752L181.262 117.962C180.506 118.074 180.17 118.368 180.17 118.886ZM190.569 121.14C189.407 121.14 188.581 120.65 188.273 119.81V121H186.215V110.92H188.315V115.008C188.665 114.21 189.519 113.72 190.681 113.72C192.599 113.72 193.831 115.162 193.831 117.402C193.831 119.67 192.543 121.14 190.569 121.14ZM189.981 119.46C190.961 119.46 191.647 118.718 191.647 117.416C191.647 116.114 190.961 115.4 189.953 115.4C188.973 115.4 188.287 116.128 188.287 117.43C188.287 118.732 188.973 119.46 189.981 119.46Z" fill="#5F43D0"/>
</g>
<defs>
<filter id="filter0_dd_10186_37111" x="93" y="88" width="134" height="80" filterUnits="userSpaceOnUse" color-interpolation-filters="sRGB">
<feFlood flood-opacity="0" result="BackgroundImageFix"/>
<feColorMatrix in="SourceAlpha" type="matrix" values="0 0 0 0 0 0 0 0 0 0 0 0 0 0 0 0 0 0 127 0" result="hardAlpha"/>
<feOffset dy="12"/>
<feGaussianBlur stdDeviation="10"/>
<feComposite in2="hardAlpha" operator="out"/>
<feColorMatrix type="matrix" values="0 0 0 0 0 0 0 0 0 0 0 0 0 0 0 0 0 0 0.03 0"/>
<feBlend mode="normal" in2="BackgroundImageFix" result="effect1_dropShadow_10186_37111"/>
<feColorMatrix in="SourceAlpha" type="matrix" values="0 0 0 0 0 0 0 0 0 0 0 0 0 0 0 0 0 0 127 0" result="hardAlpha"/>
<feOffset dy="2"/>
<feGaussianBlur stdDeviation="3"/>
<feComposite in2="hardAlpha" operator="out"/>
<feColorMatrix type="matrix" values="0 0 0 0 0 0 0 0 0 0 0 0 0 0 0 0 0 0 0.05 0"/>
<feBlend mode="normal" in2="effect1_dropShadow_10186_37111" result="effect2_dropShadow_10186_37111"/>
<feBlend mode="normal" in="SourceGraphic" in2="effect2_dropShadow_10186_37111" result="shape"/>
</filter>
</defs>
</svg>
